!! 00000] TT[WS
!!!OTL: Shishi xiangnian gege ni
!!!ARE: Asia, China, Shanxi Dinxiang
!! Ethnic Group: Han
!! WI, 323 (2)
!!!SCT: J0392
!!!YEM: Copyright 1995, estate of Helmut Schaffrath.
**kern
*ICvox
*Ivox
*M2/4
*k[f#]
*G:
{8.dd
16b
8a
8dd
=1
8g
16f#
16e
4d
=2
8.dd
16b
8a
16b
16dd
=3
2a}
=4
{8.dd
16b
8a
8dd
=5
8g
16f#
16e
4d
=6
8g
8e
16a
16b
16g
16e
=7
2d}
=8
{8e
8g
4g
=9
16a
16a
16a
16a
8e
8a
=10
16a
16b
16g
16e
4d
=11
16a
16b
16a
16g
8e
8g
=12
8a
16b
16e
4d}
=13
{8a
8b
4dd
=14
8ee
8gg
8ee
8dd
=15
16g
16a
16e
16d
16g
16a
16e
16d
=16
8g
8a
8e
8d}
=17
{8b
8a
8e
8d
=18
8g
8a
8e
8d
=19
8g
8a
8e
8d}
=20
{16dd
16dd
16dd
16dd
16dd
16dd
16dd
16dd
=21
8g
8a
16dd
16dd
16dd
16dd
=22
8dd
16g
16a
8dd
16g
16e
=23
2d}
==
!!!AGN: Xiaodiao. Qingge
!!!ONB: ESAC (Essen Associative Code) Database: CHINA
!!!AMT: simple duple
!!!AIN: vox
!!!EED: Helmut Schaffrath
!!!EEV: 1.0
*-
